app/img/icons/ic--sauna.svg

<svg xmlns="http://www.w3.org/2000/svg" preserveAspectRatio="xMidYMid" width="17" height="30.187" viewBox="0 0 17 30.187"><defs><style>.cls-1{fill:#fff;fill-rule:evenodd}</style></defs><path d="M16.212 17.171c.123.336-.014.726-.31.867-.295.141-.631-.016-.755-.352a13.485 13.485 0 0 1-.598-2.179 13.269 13.269 0 0 1-.192-2.281c0-.765.061-1.523.192-2.265.138-.757.344-1.492.598-2.172.226-.624.405-1.265.515-1.937.117-.64.178-1.312.178-2.015 0-.703-.061-1.375-.178-2.015a11.021 11.021 0 0 0-.515-1.938c-.117-.311.02-.702.302-.851.296-.14.632.017.763.352.254.688.453 1.422.584 2.171.137.75.212 1.516.212 2.281 0 .766-.075 1.531-.212 2.281a12.49 12.49 0 0 1-.584 2.171 11.39 11.39 0 0 0-.701 3.937c0 .703.061 1.39.178 2.023.117.665.289 1.313.523 1.922zM3.981 1.588c.92 0 1.766.422 2.37 1.117v.008-.008c.612.695.983 1.648.983 2.711 0 1.038-.371 1.991-.983 2.686-.604.687-1.443 1.117-2.37 1.117-.928 0-1.766-.43-2.371-1.117a4.143 4.143 0 0 1-.99-2.686 4.16 4.16 0 0 1 .99-2.711c.605-.695 1.443-1.117 2.371-1.117zm1.003 2.671a1.34 1.34 0 0 0-1.003-.469c-.392 0-.75.18-1.004.469a1.728 1.728 0 0 0-.419 1.157c0 .429.158.835.419 1.124.254.297.612.476 1.004.476a1.32 1.32 0 0 0 1.003-.476 1.72 1.72 0 0 0 .413-1.124c0-.462-.159-.86-.413-1.157zm-3.216 6.468v9.857c0 .609.44 1.094.969 1.094h6.067l4.055 7.967c.254.531.852.703 1.305.406.461-.312.625-.969.357-1.507l-4.287-8.436c-.151-.367-.481-.618-.873-.618H3.706v-8.763c0-.594-.433-1.102-.969-1.102-.529 0-.969.508-.969 1.102zM.572 24.209c-.323 0-.577-.29-.577-.657 0-.374.254-.656.577-.656h7.58c.323 0 .584.282.584.656 0 .367-.261.657-.584.657H.572zm11.365-10.983c0 .367-.261.672-.584.672-.308 0-.57-.305-.57-.672 0-.765.062-1.523.2-2.265.131-.757.33-1.492.584-2.172.226-.624.405-1.265.522-1.937.124-.64.178-1.312.178-2.015 0-.703-.054-1.375-.178-2.015a11.684 11.684 0 0 0-.522-1.938c-.117-.311.027-.702.316-.851.288-.14.625.017.749.352.268.688.46 1.422.597 2.171.138.75.2 1.516.2 2.281 0 .766-.062 1.531-.2 2.281-.137.75-.329 1.484-.597 2.171a14.698 14.698 0 0 0-.522 1.922 11.987 11.987 0 0 0-.173 2.015z" class="cls-1"/></svg>

<svg xmlns="http://www.w3.org/2000/svg" xmlns:xlink="http://www.w3.org/1999/xlink" preserveAspectRatio="xMidYMid" width="17" height="30.187" viewBox="0 0 17 30.187">
  <defs>
    <style>
      .cls-1 {
        fill: #fff;
        fill-rule: evenodd;
      }
    </style>
  </defs>
  <path d="M16.212,17.171 C16.335,17.507 16.198,17.897 15.902,18.038 C15.607,18.179 15.271,18.022 15.147,17.686 C14.893,16.991 14.687,16.257 14.549,15.507 C14.418,14.757 14.357,13.992 14.357,13.226 C14.357,12.461 14.418,11.703 14.549,10.961 C14.687,10.204 14.893,9.469 15.147,8.789 C15.373,8.165 15.552,7.524 15.662,6.852 C15.779,6.212 15.840,5.540 15.840,4.837 C15.840,4.134 15.779,3.462 15.662,2.822 C15.552,2.158 15.373,1.510 15.147,0.884 C15.030,0.573 15.167,0.182 15.449,0.033 C15.745,-0.107 16.081,0.050 16.212,0.385 C16.466,1.073 16.665,1.807 16.796,2.556 C16.933,3.306 17.008,4.072 17.008,4.837 C17.008,5.603 16.933,6.368 16.796,7.118 C16.665,7.868 16.466,8.602 16.212,9.289 C15.978,9.915 15.806,10.547 15.689,11.211 C15.572,11.859 15.511,12.539 15.511,13.226 C15.511,13.929 15.572,14.616 15.689,15.249 C15.806,15.914 15.978,16.562 16.212,17.171 L16.212,17.171 ZM3.981,1.588 L3.981,1.588 C4.901,1.588 5.747,2.010 6.351,2.705 L6.351,2.713 L6.351,2.705 C6.963,3.400 7.334,4.353 7.334,5.416 C7.334,6.454 6.963,7.407 6.351,8.102 C5.747,8.789 4.908,9.219 3.981,9.219 C3.053,9.219 2.215,8.789 1.610,8.102 C1.012,7.407 0.620,6.454 0.620,5.416 C0.620,4.353 1.012,3.400 1.610,2.705 C2.215,2.010 3.053,1.588 3.981,1.588 L3.981,1.588 ZM4.984,4.259 L4.984,4.259 C4.729,3.970 4.372,3.790 3.981,3.790 C3.589,3.790 3.231,3.970 2.977,4.259 C2.716,4.556 2.558,4.954 2.558,5.416 C2.558,5.845 2.716,6.251 2.977,6.540 C3.231,6.837 3.589,7.016 3.981,7.016 C4.372,7.016 4.729,6.837 4.984,6.540 C5.238,6.251 5.397,5.845 5.397,5.416 C5.397,4.954 5.238,4.556 4.984,4.259 L4.984,4.259 L4.984,4.259 ZM1.768,10.727 L1.768,10.727 L1.768,20.584 C1.768,21.193 2.208,21.678 2.737,21.678 L2.764,21.678 L8.804,21.678 L12.859,29.645 C13.113,30.176 13.711,30.348 14.164,30.051 C14.625,29.739 14.789,29.082 14.521,28.544 L10.234,20.108 C10.083,19.741 9.753,19.490 9.361,19.490 L3.706,19.490 L3.706,10.727 C3.706,10.133 3.273,9.625 2.737,9.625 C2.208,9.625 1.768,10.133 1.768,10.727 L1.768,10.727 ZM0.572,24.209 L0.572,24.209 C0.249,24.209 -0.005,23.919 -0.005,23.552 C-0.005,23.178 0.249,22.896 0.572,22.896 L8.152,22.896 C8.475,22.896 8.736,23.178 8.736,23.552 C8.736,23.919 8.475,24.209 8.152,24.209 L0.572,24.209 L0.572,24.209 ZM11.937,13.226 L11.937,13.226 C11.937,13.593 11.676,13.898 11.353,13.898 C11.045,13.898 10.783,13.593 10.783,13.226 C10.783,12.461 10.845,11.703 10.983,10.961 C11.114,10.204 11.313,9.469 11.567,8.789 C11.793,8.165 11.972,7.524 12.089,6.852 C12.213,6.212 12.267,5.540 12.267,4.837 C12.267,4.134 12.213,3.462 12.089,2.822 C11.972,2.158 11.793,1.510 11.567,0.884 C11.450,0.573 11.594,0.182 11.883,0.033 C12.171,-0.107 12.508,0.050 12.632,0.385 C12.900,1.073 13.092,1.807 13.229,2.556 C13.367,3.306 13.429,4.072 13.429,4.837 C13.429,5.603 13.367,6.368 13.229,7.118 C13.092,7.868 12.900,8.602 12.632,9.289 C12.419,9.915 12.240,10.547 12.110,11.211 C11.999,11.859 11.937,12.539 11.937,13.226 L11.937,13.226 Z" class="cls-1"/>
</svg>
